X:125
T:Neon Street
C:Emory Lester ("Pale Rider")
N:TablEdited by Steve Keating
L:1/8
Q:1/4=240
M:4/4
K:D
[e4A4D4A,4] D2 D2 | D2 D4 (3EFA | d6 c2 | z4 B4 | z2 Bc z4 | A2 A2 AD ED | EF A2 AF (3EFE | 
D2 ab bb bb | ba ea e4 | z2 ef ed cd | B6 AB | cA BA (3=cBA GE | GA Ae A4 | AB cd ee ab | 
c'd' c'b ae fa | e4 ed ga | ba gd ee ab | c'b ae ee c'd' | c'a ec' e2 =c'd' | 
e'd' =c'a d'a c'd' | =c'a e4 fe | gf ed =cB AB | (3=cBA (3BAG AG E=C | B,A, z2 [a'2d'2] [a'2d'2] | 
z2 A,D EG A=c | BG Ae A4 | z2 eb e'd' b2 | e'2 e'e be' eb | e'b e'e be' ea | ba be ab eg | 
ag ae gc eg | ag ag ea gc | z2 a2 zg a2 | ze =c'e be ae | =c'e be ae eg | =c2 bg ag =c'g | 
bg ag eg =c'g | zg =c'g zg c'g | bg ag ea =cg | ag ea za z2 | ag ea za zf | gf ed =cB AB | 
(3=cBA (3BAG AG E=C | B,A, z2 [a4d4] | A,A, A,D EG A=c | BG AA AA Ae | A4 z2 G,^G, | 
A,=C D=F (3EFE DE | =FG A=c (3BcB AB | =c2 zB cd =fg | aa =c'2 (3bc'b g2 | ga a4 a2 | 
z2 a2 za a2 | ag =f=c d4 | ea b2 =fe de | d8 | z4 df a2 | d'e' e'4 e'2 | A2 e'2 Ad' c'd' | 
(3c'd'c' ae za eg | (3fgf dA zd A2 | z^A/B/ =AG =F/^F/E zC | D8 | z8 | z2 ab bb bb | 
ba ea e4 | z2 ea c'd' e'c' | f'c' e'c' (3c'd'c' ae | za ef gf e=c | ce fc eg f^d | 
e^d =d=c ^ca ^gb | ae/f/ fa ef ad' | =c'^c' ab ae fa | ea z4 (3fgf | ef ed =c^c d^d | 
e=c ^ce =cB AG | EG AB =cd eg | a=f dA fd A=F | dA A=F BG DE | =FG AG A=c AF | 
A=F EF DE D=C | B,A, A,2 [a4d4] | z2 A,D EG A=c | BG Ae A4 | z2 de z2 de | e2 de e2 de | 
e2 de eg eg | e^d =d2 =c^c AE | GA GA Ae G,^G, | A,=C D=F (3EFE DE | =FG A=c (3BcB AB | 
=c2 zB cd =fg | aa =f2 (3b=c'b g2 | ga z2 a2 a2 | z2 a2 aa a2 | ag =f=c d4 | ea ba =fe de | 
d8 | z6 fg | ga z6 | z4 bc' d'2 | d'4 z2 e'2 | e'2 e'6 | e'6 e'2 | e'd' =c'd' d'e' e'2 | 
e'8 | z8 | 


